packages/icon/src/svg/test.icon.svg

<?xml version="1.0" encoding="UTF-8"?>
<svg width="24px" height="24px" viewBox="0 0 24 24" version="1.1" xmlns="http://www.w3.org/2000/svg" xmlns:xlink="http://www.w3.org/1999/xlink">
    <!-- Generator: Sketch 46.1 (44463) - http://www.bohemiancoding.com/sketch -->
    <title>Icon/test.icon</title>
    <desc>Created with Sketch.</desc>
    <defs>
        <path d="M17.5050572,3.64536731 L16.122322,5.02742764 C14.9158355,4.31413302 13.5081894,3.9047619 12.004883,3.9047619 C7.5318233,3.9047619 3.90569199,7.52912345 3.90569199,12 C3.90569199,16.4708765 7.5318233,20.0952381 12.004883,20.0952381 C16.4779426,20.0952381 20.1040739,16.4708765 20.1040739,12 C20.1040739,11.0058726 19.9247896,10.0535989 19.5967751,9.17371793 L21.0501695,7.72103287 C21.6655194,9.01825303 22.0097659,10.4689446 22.0097659,12 C22.0097659,17.5228475 17.5304272,22 12.004883,22 C6.47933868,22 2,17.5228475 2,12 C2,6.4771525 6.47933868,2 12.004883,2 C14.0366141,2 15.9268965,2.60531892 17.5050572,3.64536731 L17.5050572,3.64536731 Z M14.7163392,6.43272421 L13.2504404,7.89790758 C12.8562629,7.77849373 12.4380749,7.71428571 12.004883,7.71428571 C9.63679255,7.71428571 7.71707598,9.63306536 7.71707598,12 C7.71707598,14.3669346 9.63679255,16.2857143 12.004883,16.2857143 C14.2017915,16.2857143 16.0128064,14.6343135 16.2631519,12.5057141 L18.0630197,10.7067247 C18.1517145,11.1238301 18.1983819,11.5564678 18.1983819,12 C18.1983819,15.4189056 15.425458,18.1904762 12.004883,18.1904762 C8.58430793,18.1904762 5.81138398,15.4189056 5.81138398,12 C5.81138398,8.58109441 8.58430793,5.80952381 12.004883,5.80952381 C12.9773234,5.80952381 13.8974195,6.03352673 14.7163392,6.43272421 L14.7163392,6.43272421 Z M11.7972879,11.8545249 L20.651984,3.00415039 L21.9995117,4.35102045 L12.004883,14.299251 L8.9490041,11.2448636 L10.2965318,9.89799354 L11.7972879,11.8545249 Z" id="path-1"></path>
    </defs>
    <g id="Symbols" stroke="none" stroke-width="1" fill="none" fill-rule="evenodd">
        <g id="Icon/test">
            <mask id="mask-2" fill="white">
                <use xlink:href="#path-1"></use>
            </mask>
            <use id="Combined-Shape" fill="#000000" xlink:href="#path-1"></use>
            <g id="Color/Neutral/White" mask="url(#mask-2)" fill="#FFFFFF">
                <rect id="222222-Fill" x="0" y="0" width="24" height="24"></rect>
            </g>
        </g>
    </g>
</svg>

<svg viewBox="0 0 24 24" xmlns="http://www.w3.org/2000/svg"><path d="M17.505 3.6454l-1.3827 1.382c-1.2065-.7133-2.614-1.1226-4.1174-1.1226-4.4733 0-8.0994 3.6243-8.0994 8.0952 0 4.471 3.626 8.0952 8.0992 8.0952 4.473 0 8.099-3.6243 8.099-8.0952 0-.994-.1792-1.9464-.5072-2.8263L21.05 7.721c.6153 1.2973.9596 2.748.9596 4.279 0 5.5228-4.4794 10-10.005 10C6.4794 22 2 17.5228 2 12S6.4793 2 12.005 2c2.0316 0 3.922.6053 5.5 1.6454zm-2.7887 2.7873l-1.466 1.4652c-.394-.1196-.8122-.1838-1.2454-.1838-2.3683 0-4.288 1.9188-4.288 4.2857 0 2.367 1.9197 4.2856 4.288 4.2856 2.1967 0 4.0077-1.6514 4.258-3.78l1.8-1.799c.0886.417.1353.8498.1353 1.2933 0 3.419-2.773 6.1904-6.1935 6.1904-3.4207 0-6.1936-2.7716-6.1936-6.1905 0-3.419 2.773-6.1906 6.1935-6.1906.9723 0 1.8924.224 2.7113.6232zm-2.919 5.4218l8.8547-8.8503 1.3475 1.3468-9.9946 9.9483-3.056-3.0544 1.3474-1.347 1.5008 1.9564z" /></svg>
